res/skins/Tango/buttons/btn_mic_aux_on.svg

<?xml version="1.0" encoding="UTF-8" standalone="no"?>
<!-- Created with Inkscape (http://www.inkscape.org/) -->

<svg
   xmlns:dc="http://purl.org/dc/elements/1.1/"
   xmlns:cc="http://creativecommons.org/ns#"
   xmlns:rdf="http://www.w3.org/1999/02/22-rdf-syntax-ns#"
   xmlns:svg="http://www.w3.org/2000/svg"
   xmlns="http://www.w3.org/2000/svg"
   xmlns:inkscape="http://www.inkscape.org/namespaces/inkscape"
   version="1.1"
   width="30"
   height="20"
   id="svg5427">
  <defs
     id="defs5429">
    <inkscape:path-effect
       effect="spiro"
       id="path-effect8904" />
    <inkscape:path-effect
       effect="spiro"
       id="path-effect8900" />
    <inkscape:path-effect
       effect="spiro"
       id="path-effect8900-9" />
  </defs>
  <metadata
     id="metadata5432">
    <rdf:RDF>
      <cc:Work
         rdf:about="">
        <dc:format>image/svg+xml</dc:format>
        <dc:type
           rdf:resource="http://purl.org/dc/dcmitype/StillImage" />
        <dc:title></dc:title>
      </cc:Work>
    </rdf:RDF>
  </metadata>
  <g
     id="layer2"
     style="display:none">
    <g
       transform="matrix(-0.31804647,0.71617827,0.71617827,0.31804647,5.2333944,-5.8478877)"
       id="g5557"
       style="fill:#888888;fill-opacity:1">
      <path
         d="M 15.900134,3.489678 C 13.663266,2.4661735 11.026349,3.4474845 10.00284,5.684363 9.5723829,6.625126 9.4904621,7.6400895 9.7139329,8.5738313 L 16.097277,11.494604 C 16.949935,11.053257 17.6644,10.327721 18.094857,9.3869583 19.118366,7.1500798 18.137002,4.5131825 15.900134,3.489678 z M 9.828646,9.3030399 3.0000041,27.251979 6.3528716,28.786122 15.47049,11.884531 9.828646,9.3030399 z m 1.965342,3.1606141 c 0.428095,0.195879 0.61584,0.69912 0.419706,1.127771 L 11.026196,16.1867 c -0.196134,0.428651 -0.699677,0.615585 -1.1277712,0.419705 -0.4280946,-0.195879 -0.6158399,-0.69912 -0.4197056,-1.127771 l 1.1874978,-2.595275 c 0.196134,-0.428651 0.699677,-0.615585 1.127771,-0.419705 z"
         id="path5559"
         style="fill:#888888;fill-opacity:1" />
    </g>
    <path
       d="m 8.6828879,15.52098 c 0.00286,0.254771 0.2102154,0.457581 0.4649498,0.454731 l 4.3544343,-0.04869 0.02153,1.925725 6.07879,-0.06797 2.744041,-1.410481 3.765136,-0.04209 -0.03085,-2.75925 -3.765135,0.0421 -2.774896,-1.348761 -6.078788,0.06797 0.02153,1.925727 -4.3544336,0.04869 c -0.2547344,0.0029 -0.457514,0.210248 -0.4546657,0.465019 l 0.00835,0.747296 z"
       id="path5547"
       style="font-size:14px;font-weight:400;line-height:125%;letter-spacing:0;word-spacing:0;fill:#888888;fill-opacity:1;font-family:Ubuntu;-inkscape-font-specification:Ubuntu" />
  </g>
  <path
     d="M 6.0423489,3.3675393 C 7.3542865,2.7672473 8.9008555,3.3427923 9.5011502,4.6547363 9.7536161,5.2065 9.8016632,5.8017827 9.6705961,6.3494283 L 5.9267232,8.0624805 C 5.4266338,7.8036276 5.0075954,7.378096 4.7551296,6.8263326 4.1548349,5.5143888 4.7304113,3.9678314 6.0423489,3.3675393 z"
     id="path8896"
     style="fill:#d2d2d2;fill-opacity:1" />
  <path
     d="M 9.5251784,7.2000607 12.95854,16.224576 11.272757,16.995925 6.6885253,8.4980042 z"
     id="path5559-9"
     style="fill:#d2d2d2;fill-opacity:1" />
  <path
     d="m 18.0625,2.6686596 c -0.05458,7.14e-4 -0.134177,0.00795 -0.1875,0.03125 l -0.625,0.28125 c -0.213291,0.09321 -0.311943,0.31799 -0.21875,0.53125 l 1.59375,3.65625 -1.59375,0.6875 2.21875,5.0937494 2.15625,1.8125 0.6875,1.59375 0.75,-0.34375 0.875,2 0.96875,-0.40625 -0.875,-2.03125 0.59375,-0.25 -0.6875,-1.5625 0.15625,-2.8125 -2.21875,-5.0937494 -1.625,0.6875 -1.59375,-3.625 c -0.06989,-0.1599458 -0.211255,-0.2521421 -0.375,-0.25 z"
     id="path5547-1"
     style="font-size:14px;font-weight:400;line-height:125%;letter-spacing:0;word-spacing:0;fill:#d2d2d2;fill-opacity:1;stroke:none;font-family:Ubuntu;-inkscape-font-specification:Ubuntu" />
  <g
     id="layer3"
     style="display:none">
    <g
       transform="matrix(-0.61745748,0,0,0.61745748,14.94048,0.52544769)"
       id="g5557-2-2"
       style="fill:#888888;fill-opacity:1;display:inline">
      <path
         d="M 15.900134,3.489678 C 13.663266,2.4661735 11.026349,3.4474845 10.00284,5.684363 9.5723829,6.625126 9.4904621,7.6400895 9.7139329,8.5738313 L 16.097277,11.494604 C 16.949935,11.053257 17.6644,10.327721 18.094857,9.3869583 19.118366,7.1500798 18.137002,4.5131825 15.900134,3.489678 z M 9.828646,9.3030399 3.0000041,27.251979 6.3528716,28.786122 15.47049,11.884531 9.828646,9.3030399 z m 1.965342,3.1606141 c 0.428095,0.195879 0.61584,0.69912 0.419706,1.127771 L 11.026196,16.1867 c -0.196134,0.428651 -0.699677,0.615585 -1.1277712,0.419705 -0.4280946,-0.195879 -0.6158399,-0.69912 -0.4197056,-1.127771 l 1.1874978,-2.595275 c 0.196134,-0.428651 0.699677,-0.615585 1.127771,-0.419705 z"
         id="path5559-9-7"
         style="fill:#888888;fill-opacity:1" />
    </g>
    <path
       d="m 24.735963,2.4612111 c -0.214833,-0.089599 -0.459903,0.011188 -0.549491,0.225987 l -1.531437,3.6717825 -1.623827,-0.6772693 -2.137886,5.1258117 0.192844,2.812069 -1.324183,3.17487 2.326678,0.970416 1.324182,-3.174869 2.13383,-1.841659 L 25.684562,7.6225447 24.060735,6.945274 25.592172,3.2734914 C 25.681763,3.0586936 25.580934,2.8136331 25.366105,2.7240323 L 24.735963,2.4612111 z"
       id="path5547-1-0"
       style="font-size:14px;font-weight:400;line-height:125%;letter-spacing:0;word-spacing:0;fill:#888888;fill-opacity:1;display:inline;font-family:Ubuntu;-inkscape-font-specification:Ubuntu" />
  </g>
</svg>

<!-- Created with Inkscape (http://www.inkscape.org/) -->
<svg id="svg5427" width="30" height="20" version="1.1" xmlns="http://www.w3.org/2000/svg"><g id="layer2" display="none" fill="#888"><g id="g5557" transform="matrix(-.31805 .71618 .71618 .31805 5.2334 -5.8479)"><path id="path5559" d="m15.9 3.4897c-2.2369-1.0235-4.8738-0.042194-5.8973 2.1947-0.43046 0.94076-0.51238 1.9557-0.28891 2.8895l6.3833 2.9208c0.85266-0.44135 1.5671-1.1669 1.9976-2.1076 1.0235-2.2369 0.042145-4.8738-2.1947-5.8973zm-6.0715 5.8134-6.8286 17.949 3.3529 1.5341 9.1176-16.902-5.6418-2.5815zm1.9653 3.1606c0.4281 0.19588 0.61584 0.69912 0.41971 1.1278l-1.1875 2.5953c-0.19613 0.42865-0.69968 0.61558-1.1278 0.4197-0.42809-0.19588-0.61584-0.69912-0.41971-1.1278l1.1875-2.5953c0.19613-0.42865 0.69968-0.61558 1.1278-0.4197z" fill="#888"/></g><path id="path5547" d="m8.6829 15.521c0.00286 0.25477 0.21022 0.45758 0.46495 0.45473l4.3544-0.04869 0.02153 1.9257 6.0788-0.06797 2.744-1.4105 3.7651-0.04209-0.03085-2.7592-3.7651 0.0421-2.7749-1.3488-6.0788 0.06797 0.02153 1.9257-4.3544 0.04869c-0.25473 0.0029-0.45751 0.21025-0.45467 0.46502l0.00835 0.7473z"/></g><path id="path8896" d="m6.0423 3.3675c1.3119-0.60029 2.8585-0.024747 3.4588 1.2872 0.25247 0.55176 0.30051 1.147 0.16945 1.6947l-3.7439 1.7131c-0.50009-0.25885-0.91913-0.68438-1.1716-1.2361-0.60029-1.3119-0.024718-2.8585 1.2872-3.4588z" fill="#d2d2d2"/><path id="path5559-9" d="m9.5252 7.2001 3.4334 9.0245-1.6858 0.77135-4.5842-8.4979z" fill="#d2d2d2"/><path id="path5547-1" d="m18.062 2.6687c-0.05458 7.14e-4 -0.13418 0.00795-0.1875 0.03125l-0.625 0.28125c-0.21329 0.09321-0.31194 0.31799-0.21875 0.53125l1.5938 3.6562-1.5938 0.6875 2.2188 5.0937 2.1562 1.8125 0.6875 1.5938 0.75-0.34375 0.875 2 0.96875-0.40625-0.875-2.0312 0.59375-0.25-0.6875-1.5625 0.15625-2.8125-2.2188-5.0937-1.625 0.6875-1.5938-3.625c-0.06989-0.15995-0.21126-0.25214-0.375-0.25z" fill="#d2d2d2"/><g id="layer3" display="none" fill="#888"><g id="g5557-2-2" transform="matrix(-.61746 0 0 .61746 14.94 .52545)" display="inline"><path id="path5559-9-7" d="m15.9 3.4897c-2.2369-1.0235-4.8738-0.042194-5.8973 2.1947-0.43046 0.94076-0.51238 1.9557-0.28891 2.8895l6.3833 2.9208c0.85266-0.44135 1.5671-1.1669 1.9976-2.1076 1.0235-2.2369 0.042145-4.8738-2.1947-5.8973zm-6.0715 5.8134-6.8286 17.949 3.3529 1.5341 9.1176-16.902-5.6418-2.5815zm1.9653 3.1606c0.4281 0.19588 0.61584 0.69912 0.41971 1.1278l-1.1875 2.5953c-0.19613 0.42865-0.69968 0.61558-1.1278 0.4197-0.42809-0.19588-0.61584-0.69912-0.41971-1.1278l1.1875-2.5953c0.19613-0.42865 0.69968-0.61558 1.1278-0.4197z" fill="#888"/></g><path id="path5547-1-0" d="m24.736 2.4612c-0.21483-0.089599-0.4599 0.011188-0.54949 0.22599l-1.5314 3.6718-1.6238-0.67727-2.1379 5.1258 0.19284 2.8121-1.3242 3.1749 2.3267 0.97042 1.3242-3.1749 2.1338-1.8417 2.1379-5.1258-1.6238-0.67727 1.5314-3.6718c0.089591-0.2148-0.011238-0.45986-0.22607-0.54946l-0.63014-0.26282z" display="inline"/></g></svg>
